X:1
T:Lead Thy Mother Tenderly
T:Lead Thy Mother Tenderly
T:Carlos Troyer
C:Carlos Troyer
%%score [ 1 2 3 4 ]
L:1/8
Q:1/4=120
M:4/4
K:G
V:1 treble nm="Soprano" snm="S"
V:2 treble nm="Alto" snm="A"
V:3 treble-8 nm="Tenor" snm="T"
V:4 bass nm="Bass" snm="B"
V:1
"^Andante" D2"^With tenderness and devotion" G2 F2 G2 | A3 B A4 | d2 B2 F2 G2 | A8 | D2 B2 B2 A2 | %5
w: Lead thy moth- er|ten- der- ly|down life's steep de-|cline;|Once her arm was|
 G3 F E4 | A2 F2 E2 !fermata!F2 | D8 | D2 A2 B2 A2 | G3 F G4 | A2"^ten." B2 d3 c | B8 | %12
w: thy sup- port,|now she leans on|thine.|See up- on her|love- ly face,|those deep lines of|care;|
 e2 A2 B2 c2 | d2 B2 G4 | A2 B2 E2 F2 | G8 | B2 B2 e2 B2 | B3 c A4 | F2 G2 A2 B2 | G8 | %20
w: Think it was her|toil for thee|left that rec- ord|there.|Ne'er for- get that|tire- less- watch|kept by day and|night|
 G2 G2 A2 G2 | G2 e2 d4 | d2 c2 B2 A2 | B8 |"^animato" B2 B2!<(! B2 B2 | d3!<)! ^c B4 | %26
w: Tak- ing from her|step the grace,|from her eyes the|light.|Shield from harm the|faith- ful heart,|
!>(! B2 B2 ^A2 B2!>)! | ^c8 |!<(! d2 d2 d2!<)! d2 |!f!!>(! e3 d!>)! B4 | %30
w: which through wear- y|years|Ech- oed with its|sym- pa- thy,|
"^poco rit."!<(! G2!<)! d2!>(! c2 B2!>)! |!pp! !fermata!A8"^Sotto voce" | D2 G2 F2 G2 | A3 B A4 | %34
w: smiles and ten- der|tears.|Cher- ish well thy|moth- er's love,|
 d2 B2 F2 G2 | A8 | D2 B2 B2 A2 | G3 F E4 | A2 F2 E2 !fermata!F2 | D8 | D2 A2 B2 A2 | G3 F G4 | %42
w: guard the price- less|boon,|For the bit- ter|part- ing hour|com- eth all too|soon,|Oth- er love may|seem more dear,|
!<(! A2!<)!"^ten." B2!>(! d3 c!>)! | B8 |!mf! e2 A2 B2 c2 |!<(! d2!<)! B2!f! !fermata!g4 | %46
w: time will ev- er|prove:|Tru- est, fond- est,|best of all|
!p! A2"^rit." e2 d2 !fermata!F2 | G4 z4 |] %48
w: is thy moth- er's|love.|
V:2
 D2 D2 D2 D2 | F2 F2 F4 | G2 D2 ^C2 C2 | (=C2 D2) E2 D2 | D2 D2 ^D2 F2 | E2 ^D2 (E2 ^C2) | %6
w: Lead thy moth- er|ten- der- ly|down life's steep de-|cline; * * *|Once her arm was|thy sup- port, *|
 D2 D2 D2 !fermata!A,2 | (A,2 B,2 A,4) | D2 D2 D2 D2 | D2 D2 D4 | D2"^ten." D2 E2 F2 | G8 | %12
w: now she leans on|thine. * *|See up- on her|love- ly face,|those deep lines of|care;|
 G2 G2 F2 (FD) | G2 G2 E4 | E2 E2 =C2 C2 | B,8 | E2 E2 E2 E2 | E2 E2 E4 | ^D2 E2 E2 F2 | E8 | %20
w: Think it was her *|toil for thee|left that rec- ord|there.|Ne'er for- get that|tire- less watch|kept by day and|night|
 =F2 F2 F2 F2 | E2 G2 G4 | A2 A2 F2 F2 | G8 | E2 E2!<(! F2 F2 | G2!<)! G2 F4 | %26
w: Tak- ing from her|step the grace,|from her eyes the|light.|Shield from harm the|faith- ful heart,|
!>(! ^E2 E2 E2 E2!>)! | =E8 |!<(! F2 F2 F2!<)! F2 |!f!!>(! G2 G2!>)! G4 | %30
w: which through wear- y|years|Ech- oed with its|sym- pa- thy,|
"^poco rit."!<(! G2!<)! G2!>(! A2 G2!>)! |!pp! (F2 E2 !fermata!D2 C2) | B,2 D2 D2 D2 | D2 D2 D4 | %34
w: smiles and ten- der|tears. * * *|Cher- ish well thy|moth- er's love,|
 D2 D2 ^C2 C2 | (=C2 E2 D4) | D2 D2 ^D2 F2 | E2 ^D2 (E2 ^C2) | D2 D2 D2 !fermata!A,2 | %39
w: guard the price- less|boon, * *|For the bit- ter|part- ing hour *|com- eth all too|
 (A,2 B,2 A,4) | D2 D2 D2 D2 | D2 D2 D4 |!<(! D2!<)!"^ten." D2!>(! E2 F2!>)! | G8 | %44
w: soon, * *|Oth- er love may|seem more dear,|time will ev- er|prove:|
!mf! E2 G2 F2 (FD) |!<(! G2!<)! G2!f! !fermata!G4 |!p! G2"^rit." G2 G2 !fermata!D2 | D4 z4 |] %48
w: Tru- est, fond- est, *|best of all|is thy moth- er's|love.|
V:3
 B2 B2 c2 B2 | c2 c2 c4 | B2 G2 A2 G2 | (F4 G2 c2) | B2 G2 c2 c2 | B2 B2 (B2 G2) | %6
w: Lead thy moth- er|ten- der- ly|down life's steep de-|cline; * *|Once her arm was|thy sup- port, *|
 F2 A2 ^G2 !fermata!=G2 | (F2 G2 F4) | c2 c2 c2 c2 | B3 c B4 | c2"^ten." B2 A2 d2 | d8 | %12
w: now she leans on|thine. * *|See up- on her|love- ly face,|those deep lines of|care;|
 e2 e2 d2 d2 | d2 d2 B4 | G2 G2 F2 D2 | D8 | G2 G2 A2 B2 | c2 c2 c4 | B2 B2 B2 B2 | B8 | %20
w: Think it was her|toil for thee|left that rec- ord|there.|Ne'er for- get that|tire- less watch|kept by day and|night|
 B2 B2 B2 B2 | c2 c2 d4 | e2 e2 d2 d2 | d8 | B2 B2!<(! d2 d2 | e2!<)! e2 d4 | %26
w: Tak- ing from her|step the grace,|from her eyes the|light.|Shield from harm the|faith- ful heart,|
!>(! ^G2 G2 ^c2!>)! B2 | ^A8 |!<(! B2 B2 =c2!<)! c2 |!f!!>(! B2 d2!>)! d4 | %30
w: which through wear- y|years|Ech- oed with its|sym- pa- thy,|
"^poco rit."!<(! e2!<)! d2!>(! e2 e2!>)! |!pp! (d2 c2 !fermata!B2 A2) | G2 B2 c2 B2 | c2 c2 c4 | %34
w: smiles and ten- der|tears. * * *|Cher- ish well thy|moth- er's love,|
 B2 G2 A2 G2 | (F4 G2 A2) | B2 G2 c2 c2 | B2 B2 (B2 G2) | F2 A2 ^G2 !fermata!=G2 | (F2 G2 F4) | %40
w: guard the price- less|boon, * *|For the bit- ter|part- ing hour *|com- eth all too|soon, * *|
 A2 c2 c2 c2 | B3 c B4 |!<(! c2!<)!"^ten." B2!>(! A2 d2!>)! | d8 |!mf! c2 e2 d2 d2 | %45
w: Oth- er love may|seem more dear,|time will ev- er|prove:|Tru- est, fond- est,|
!<(! d2!<)! d2!f! !fermata!e4 |!p! e2"^rit." A2 B2 !fermata!c2 | B4 z4 |] %48
w: best of all|is thy moth- er's|love.|
V:4
 G,2 G,2 G,2 G,2 | G,2 G,2 G,4 | G,2 G,2 E,2 E,2 | (D,6 F,2) | G,2 G,2 F,2 ^D,2 | %5
w: Lead thy moth- er|ten- der- ly|down life's steep de-|cline; *|Once her arm was|
 E,2 F,2 (G,2 A,,2) | D,2 A,,2 B,,2 !fermata!^C,2 | D,8 | F,2 F,2 E,2 F,2 | G,2 A,2 (B,2 G,2) | %10
w: thy sup- port, *|now she leans on|thine.|See up- on her|love- ly face, *|
 F,2"^ten." G,2 A,2 D,2 | G,8 | C2 C2 B,2 A,2 | B,2 G,2 E,4 | ^C,2 C,2 D,2 D,2 | G,,8 | %16
w: those deep lines of|care;|Think it was her|toil for thee|left that rec- ord|there.|
 E,2 E,2 F,2 G,2 | A,2 A,2 F,4 | B,,2 B,,2 ^C,2 ^D,2 | (E,2 G,2 F,2 E,2) | D,2 D,2 G,2 G,2 | %21
w: Ne'er for- get that|tire- less watch|kept by day and|night * * *|Tak- ing from her|
 C,2 C2 B,4 | A,2 A,2 D,2 D,2 | G,8 | G,2 G,2!<(! F,2 F,2 | E,2!<)! E,2 D,4 | %26
w: step the grace,|from her eyes the|light.|Shield from harm the|faith- ful heart,|
!>(! ^C,2 C,2 C,2 C,2!>)! | F,8 |!<(! B,2 B,2 A,2!<)! A,2 |!f!!>(! G,2 B,,2!>)! (D,2 G,2) | %30
w: which through wear- y|years|Ech- oed with its|sym- pa- thy, *|
"^poco rit."!<(! C2!<)! B,2!>(! A,2 ^C,2!>)! |!pp! !fermata!D,8 | G,2 G,2 A,2 G,2 | %33
w: smiles and ten- der|tears.|Cher- ish well thy|
 F,2 D,2 (E,2 F,2) | G,2 G,2 E,2 E,2 | (D,4 E,2 F,2) | G,2 G,2 F,2 ^D,2 | E,2 F,2 (G,2 A,,2) | %38
w: moth- er's love, *|guard the price- less|boon, * *|For the bit- ter|part- ing hour *|
 D,2 A,,2 B,,2 !fermata!^C,2 | D,8 | F,2 F,2 E,2 F,2 | G,2 A,2 (B,2 G,2) | %42
w: com- eth all too|soon,|Oth- er love may|seem more dear, *|
!<(! F,2!<)!"^ten." G,2!>(! A,2 D,2!>)! | G,8 |!mf! C2 C2 B,2 A,2 | %45
w: time will ev- er|prove:|Tru- est, fond- est,|
!<(! B,2!<)! G,2!f! !fermata!E,4 |!p! C,2"^rit." ^C,2 D,2 !fermata!D,2 | G,4 z4 |] %48
w: best of all|is thy moth- er's|love.|

